images/icons/face-icon.svg

<svg width="21" height="21" viewBox="0 0 21 21" fill="none" xmlns="http://www.w3.org/2000/svg">
<path d="M10.5 17.2501C9.63367 17.2508 8.78066 17.0369 8.01724 16.6274C7.25381 16.2178 6.60378 15.6255 6.12525 14.9033L7.37475 14.0731C7.7168 14.5889 8.18119 15.012 8.72651 15.3047C9.27182 15.5974 9.8811 15.7506 10.5 15.7506C11.1189 15.7506 11.7282 15.5974 12.2735 15.3047C12.8188 15.012 13.2832 14.5889 13.6253 14.0731L14.8748 14.9033C14.3962 15.6255 13.7462 16.2178 12.9828 16.6274C12.2193 17.0369 11.3663 17.2508 10.5 17.2501ZM13.5 9.00008C13.2033 9.00008 12.9133 9.08805 12.6666 9.25287C12.42 9.41769 12.2277 9.65196 12.1142 9.92605C12.0006 10.2001 11.9709 10.5017 12.0288 10.7927C12.0867 11.0837 12.2296 11.351 12.4393 11.5607C12.6491 11.7705 12.9164 11.9134 13.2074 11.9713C13.4983 12.0291 13.7999 11.9994 14.074 11.8859C14.3481 11.7724 14.5824 11.5801 14.7472 11.3334C14.912 11.0868 15 10.7967 15 10.5001C15.002 10.3025 14.9646 10.1066 14.8899 9.92369C14.8152 9.74079 14.7048 9.57464 14.5651 9.43495C14.4254 9.29526 14.2593 9.18484 14.0764 9.11017C13.8935 9.0355 13.6975 8.99807 13.5 9.00008ZM7.5 9.00008C7.20333 9.00008 6.91332 9.08805 6.66665 9.25287C6.41997 9.41769 6.22771 9.65196 6.11418 9.92605C6.00065 10.2001 5.97094 10.5017 6.02882 10.7927C6.0867 11.0837 6.22956 11.351 6.43934 11.5607C6.64912 11.7705 6.91639 11.9134 7.20737 11.9713C7.49834 12.0291 7.79994 11.9994 8.07403 11.8859C8.34811 11.7724 8.58238 11.5801 8.74721 11.3334C8.91203 11.0868 9 10.7967 9 10.5001C9.00201 10.3025 8.96458 10.1066 8.88991 9.92369C8.81523 9.74079 8.70482 9.57464 8.56513 9.43495C8.42544 9.29526 8.25928 9.18484 8.07639 9.11017C7.8935 9.0355 7.69754 8.99807 7.5 9.00008Z" fill="black"/>
<path d="M21 10.5V9H19.5V6C19.499 5.20466 19.1826 4.44217 18.6202 3.87978C18.0578 3.31738 17.2953 3.00099 16.5 3H15V0H13.5V3H7.5V0H6V3H4.5C3.70466 3.00099 2.94217 3.31738 2.37978 3.87978C1.81738 4.44217 1.50099 5.20466 1.5 6V9H0V10.5H1.5V14.25H0V15.75H1.5V18C1.50099 18.7953 1.81738 19.5578 2.37978 20.1202C2.94217 20.6826 3.70466 20.999 4.5 21H16.5C17.2953 20.999 18.0578 20.6826 18.6202 20.1202C19.1826 19.5578 19.499 18.7953 19.5 18V15.75H21V14.25H19.5V10.5H21ZM18 18C18 18.3978 17.842 18.7794 17.5607 19.0607C17.2794 19.342 16.8978 19.5 16.5 19.5H4.5C4.10218 19.5 3.72064 19.342 3.43934 19.0607C3.15804 18.7794 3 18.3978 3 18V6C3 5.60218 3.15804 5.22064 3.43934 4.93934C3.72064 4.65804 4.10218 4.5 4.5 4.5H16.5C16.8978 4.5 17.2794 4.65804 17.5607 4.93934C17.842 5.22064 18 5.60218 18 6V18Z" fill="black"/>
</svg>

<svg xmlns="http://www.w3.org/2000/svg" width="21" height="21" fill="none"><path fill="#000" d="M10.5 17.25a5.24 5.24 0 0 1-4.375-2.347l1.25-.83a3.75 3.75 0 0 0 6.25 0l1.25.83A5.24 5.24 0 0 1 10.5 17.25m3-8.25a1.5 1.5 0 1 0 1.5 1.5A1.485 1.485 0 0 0 13.5 9m-6 0A1.5 1.5 0 1 0 9 10.5 1.485 1.485 0 0 0 7.5 9"/><path fill="#000" d="M21 10.5V9h-1.5V6a3.004 3.004 0 0 0-3-3H15V0h-1.5v3h-6V0H6v3H4.5a3.004 3.004 0 0 0-3 3v3H0v1.5h1.5v3.75H0v1.5h1.5V18a3.004 3.004 0 0 0 3 3h12a3.004 3.004 0 0 0 3-3v-2.25H21v-1.5h-1.5V10.5zM18 18a1.5 1.5 0 0 1-1.5 1.5h-12A1.5 1.5 0 0 1 3 18V6a1.5 1.5 0 0 1 1.5-1.5h12A1.5 1.5 0 0 1 18 6z"/></svg>
